dist/svgs/carbon-icons/svg/maximize.svg

<?xml version="1.0" encoding="UTF-8"?>
<svg width="16px" height="16px" viewBox="0 0 16 16" version="1.1" xmlns="http://www.w3.org/2000/svg" xmlns:xlink="http://www.w3.org/1999/xlink">
    <!-- Generator: Sketch 50.2 (55047) - http://www.bohemiancoding.com/sketch -->
    <title>maximize</title>
    <desc>Created with Sketch.</desc>
    <defs></defs>
    <g id="maximize" stroke="none" stroke-width="1" fill="none" fill-rule="evenodd">
        <path d="M1.70927162,15 L3.99999988,15 L3.99999988,16 L0.00273318979,16 L8.8817842e-16,12.0003417 L0.999999767,11.9996583 L1.00156727,14.2934904 L5.29788753,9.99717014 L6.00499451,10.7042771 L1.70927162,15 Z" id="Combined-Shape" fill="#000000" fill-rule="nonzero"></path>
        <path d="M14.9984062,1.66788979 L10.7268088,5.98533834 L10.0159374,5.28201635 L14.2524789,1 L12,1 L12,-2.10942375e-15 L15.9972667,-2.10942375e-15 L15.9999999,3.99965832 L15.0000001,4.00034168 L14.9984062,1.66788979 Z" id="Combined-Shape" fill="#000000" fill-rule="nonzero"></path>
    </g>
</svg>

<svg xmlns="http://www.w3.org/2000/svg" viewBox="0 0 16 16"><path d="M1.71 15H4v1H.003L0 12h1l.002 2.293 4.296-4.296.707.707L1.709 15zM14.998 1.668l-4.271 4.317-.711-.703L14.252 1H12V0h3.997L16 4h-1l-.002-2.332z"/></svg>
